X:92
T:Irish Lawyer, The
M:6/8
L:1/8
N:Drone 'A' string whenever possible.
B:Thompson's Compleat Collection of 200 Favourite Country Dances, vol. 1 (London, 1757)
Z:Transcribed and edited by Fynnian Titford-Mock, 2007
Z:abc's:AK/Fiddler's Companion
K:D
f/e/|d2A AFA|AFA Afe|d2A AGF|EFE  Efe|e2A AF(A|A)FA AGF|GAB AGF|1
EFE E2:|2 EFE GFE|:D<EF F>EF|DEF GFE|D>EF F>EF|EFE GFE|
D>EF F>EF|FEF FEF|GAB AGF|1 EFE GFE:|2 EFE E2:|

